X: 1
T: Missa [sine nomine] &mdash; Kyrie
C: Anonymous
%%abc-version 2.0
%%abcx-abcm2ps-target-version 5.9.1 (29 Sep 2008)
%%abc-creator hum2abc beta
%%abcx-conversion-date 2022/03/06 13:05:58
%%abc-copyright Copyright 2016, Kolb, Paul
%%abc-edited-by Zybina, Karina
%%humdrum-veritas 4124513511
%%humdrum-veritas-data 2084778
%%linebreak <none>
%%barnumbers 0
L: 1/4
M: 2/2
N: Derived from Ano0207a-Missa_sine_nomine_Kyrie.krn
%%staves [1 2 3 4]
V: 1 clef=treble
V: 2 clef=treble-8
V: 3 clef=treble-8
V: 4 clef=bass
K: F
[V:1] G4 | 
[V:2] d4- | 
[V:3] G4 | 
[V:4] G,4- | 
[V:1] G3E | 
[V:2] d2e2 | 
[V:3] B2c2 | 
[V:4] G,2C,2 | 
[V:1] FA2G/F/ | 
[V:2] d2D2 | 
[V:3] A3B | 
[V:4] D,F,2E,/D,/ | 
[V:1] E2D2 | 
[V:2] E2F3/G/ | 
[V:3] c2d2 | 
[V:4] C,2B,,2 | 
[V:1] F2G2 | 
[V:2] A2d3/e/ | 
[V:3] cAB2 | 
[V:4] A,,2G,,2 | 
[V:1] A3B | 
[V:2] f>e d/c/B | 
[V:3] A2zG | 
[V:4] D,>E,F,G, | 
[V:1] AB2A/G/ | 
[V:2] cBd2- | 
[V:3] AGB2 | 
[V:4] F,G,G,,2 | 
[V:1] F>GA2 | 
[V:2] dc/B/A2 | 
[V:3] A2zF | 
[V:4] D,4 | 
[V:1] zBGA- | 
[V:2] G2EF | 
[V:3] GB2A- | 
[V:4] z4 | 
[V:1] AFE2 | 
[V:2] D2z2 | 
[V:3] Ad2^c | 
[V:4] z2A,,2 | 
[V:1] D2z2 | 
[V:2] f>e d/c/B- | 
[V:3] d>cAB | 
[V:4] B,,>C,D,G,, | 
[V:1] zG_EF- | 
[V:2] BA/G/AF- | 
[V:3] G2z2 | 
[V:4] z_E,C,D, | 
[V:1] FDC2 | 
[V:2] FB2A | 
[V:3] F>GAF | 
[V:4] B,,2F,2 | 
[V:1] z2zd | 
[V:2] B>cdB | 
[V:3] F2B3/G/ | 
[V:4] B,,3G,, | 
[V:1] Bc>BA/G/ | 
[V:2] d_ecf- | 
[V:3] G2zA | 
[V:4] G,C,F,2 | 
[V:1] FB2A | 
[V:2] f/_e/d_ef | 
[V:3] Bdc2 | 
[V:4] D,G,2F, | 
[V:1] B3A | 
[V:2] d2z2 | 
[V:3] B2GA | 
[V:4] G,3F, | 
[V:1] G2F2 | 
[V:2] zGA2 | 
[V:3] Bcd2 | 
[V:4] _E,2D,2 | 
[V:1] G2_ED | 
[V:2] G>F G/A/B | 
[V:3] Bc2d- | 
[V:4] _E,>D,C,B,,- | 
[V:1] F2GA | 
[V:2] Ff_ef | 
[V:3] d/c/B/A/GF | 
[V:4] B,,/C,/D,_E,D, | 
[V:1] GA>GA | 
[V:2] dfcf- | 
[V:3] BAc2 | 
[V:4] G,F,>_E,F, | 
[V:1] FB>AB | 
[V:2] f/_e/d2g- | 
[V:3] d>cdB | 
[V:4] D,G,>F,G, | 
[V:1] Gc>BA- | 
[V:2] gG2A- | 
[V:3] _e>d_ec- | 
[V:4] C,3F,- | 
[V:1] AG2^F | 
[V:2] Ad3 | 
[V:3] cBA2 | 
[V:4] F,G,D,2 | 
[V:1] G4 ||  
[V:2] d4 ||  
[V:3] G4 ||  
[V:4] G,,4 ||  
[V:1] [M:2/2]z4 | 
[V:2] [M:2/2]d2ef- | 
[V:3] [M:2/2]z4 | 
[V:4] [M:2/2]z4 | 
[V:1] z4 | 
[V:2] fe/d/ c/B/A/G/ | 
[V:3] z4 | 
[V:4] D,2E,F,- | 
[V:1] z4 | 
[V:2] Ad2^c | 
[V:3] z2G2 | 
[V:4] F,E,/D,/E,2 | 
[V:1] z4 | 
[V:2] d3c/B/ | 
[V:3] AB2A/G/ | 
[V:4] D,2G,,2 | 
[V:1] F2GA- | 
[V:2] A2GF | 
[V:3] AG/F/ED- | 
[V:4] zD,E,F,- | 
[V:1] AG/F/G2 | 
[V:2] DA2G | 
[V:3] Dd2^c | 
[V:4] F,E,/D,/E,2 | 
[V:1] F2AB- | 
[V:2] A2z2 | 
[V:3] d>cAG- | 
[V:4] D,>E,F,G, | 
[V:1] BA/G/A2 | 
[V:2] zg2^f | 
[V:3] GF/E/D2 | 
[V:4] G,,2z2 | 
[V:1] G2Bc- | 
[V:2] g2g/f/e/d/ | 
[V:3] zG2A- | 
[V:4] G,>F, E,/D,/C, | 
[V:1] cB/A/B2 | 
[V:2] cf2e | 
[V:3] AG/F/G2 | 
[V:4] F,2z2 | 
[V:1] A>Bcd- | 
[V:2] f2ed | 
[V:3] F>GAD | 
[V:4] D,2A,,B,, | 
[V:1] dc/B/ c/B/A/G/ | 
[V:2] e4 | 
[V:3] A4 | 
[V:4] A,,2z2 | 
[V:1] F>GAB- | 
[V:2] d>efg | 
[V:3] A>Bcd- | 
[V:4] D,>C,A,,G,, | 
[V:1] BG2^F | 
[V:2] d4 | 
[V:3] dBA2 | 
[V:4] B,,>C,D,2 | 
[V:1] G2z2 | 
[V:2] z4 | 
[V:3] G/A/B/c/d_e- | 
[V:4] G,,>A,,B,,C,- | 
[V:1] z4 | 
[V:2] z4 | 
[V:3] ed2c | 
[V:4] C,D,_E,2 | 
[V:1] D/E/F/G/AB- | 
[V:2] z4 | 
[V:3] d>cAG | 
[V:4] D,2z2 | 
[V:1] BA2G | 
[V:2] z4 | 
[V:3] cdB2 | 
[V:4] z4 | 
[V:1] A2z2 | 
[V:2] c>def- | 
[V:3] A2z2 | 
[V:4] A,,>B,,C,D,- | 
[V:1] z4 | 
[V:2] f/e/d/c/ B/A/d | 
[V:3] z4 | 
[V:4] D,/E,/F,/E,/ D,/C,/B,, | 
[V:1] z4 | 
[V:2] cB2A | 
[V:3] z4 | 
[V:4] A,,B,,C,2 | 
[V:1] z2D3/E/ | 
[V:2] BFB3/c/ | 
[V:3] D>EFG | 
[V:4] B,,2B,,2- | 
[V:1] FGFB- | 
[V:2] d>efg- | 
[V:3] FBAG- | 
[V:4] B,,G,,D,B,, | 
[V:1] BAG3/_E/ | 
[V:2] gd2c | 
[V:3] GFG2 | 
[V:4] G,,D,_E,2 | 
[V:1] F4 ||  
[V:2] d4 ||  
[V:3] A4 ||  
[V:4] D,4 ||  
[V:1] [M:2/2]z4 | 
[V:2] [M:2/2]d2e2 | 
[V:3] [M:2/2]z4 | 
[V:4] [M:2/2]z4 | 
[V:1] z4 | 
[V:2] f2g2 | 
[V:3] z4 | 
[V:4] D,2E,2 | 
[V:1] z4 | 
[V:2] fd2c/B/ | 
[V:3] z2G2 | 
[V:4] F,2G,2 | 
[V:1] F2G2 | 
[V:2] A2Gd | 
[V:3] A2B2 | 
[V:4] D,2z2 | 
[V:1] A2B2 | 
[V:2] e>fg2 | 
[V:3] c>BG2 | 
[V:4] z2G,,2 | 
[V:1] A2dc | 
[V:2] e2de- | 
[V:3] c2BA | 
[V:4] A,,2B,,C,- | 
[V:1] A2B3/A/ | 
[V:2] efg2 | 
[V:3] c2d2 | 
[V:4] C,B,,/A,,/G,,2 | 
[V:1] G2F2 | 
[V:2] z4 | 
[V:3] _e2d3/c/ | 
[V:4] C,2D,2 | 
[V:1] B2AG- | 
[V:2] d>efe- | 
[V:3] B/A/GFG- | 
[V:4] z4 | 
[V:1] G/F/E/D/E2 | 
[V:2] ed2^c | 
[V:3] GBA2 | 
[V:4] z4 | 
[V:1] D2z2 | 
[V:2] d4 | 
[V:3] B3A/G/ | 
[V:4] z4 | 
[V:1] z4 | 
[V:2] z4 | 
[V:3] FG2A- | 
[V:4] B,,2C,2 | 
[V:1] z4 | 
[V:2] z4 | 
[V:3] AFGF/E/ | 
[V:4] D,2E,2 | 
[V:1] z4 | 
[V:2] z4 | 
[V:3] D/E/F/G<AB/ | 
[V:4] F,3E,/D,/ | 
[V:1] z4 | 
[V:2] z4 | 
[V:3] cd2c/B/ | 
[V:4] C,B,,F,2- | 
[V:1] z4 | 
[V:2] z4 | 
[V:3] cB2A | 
[V:4] F,D,C,2 | 
[V:1] D>E F/G/A- | 
[V:2] f3e/d/ | 
[V:3] B2z2 | 
[V:4] B,,2z2 | 
[V:1] A/B/cd3/c/ | 
[V:2] c2B3/c/ | 
[V:3] z4 | 
[V:4] z4 | 
[V:1] B/G/BAG- | 
[V:2] d2c2- | 
[V:3] z4 | 
[V:4] z4 | 
[V:1] GF2E | 
[V:2] cAG2 | 
[V:3] z4 | 
[V:4] z2C,2 | 
[V:1] F2DE- | 
[V:2] zAB2 | 
[V:3] F2G2- | 
[V:4] D,2B,,G,, | 
[V:1] E/F/GEF- | 
[V:2] Gc3 | 
[V:3] GEA2- | 
[V:4] C,3A,, | 
[V:1] F/G/AFG- | 
[V:2] Ad3 | 
[V:3] AFB2- | 
[V:4] D,3B,, | 
[V:1] GBGA- | 
[V:2] B2z_e | 
[V:3] BGc2 | 
[V:4] _E,3C, | 
[V:1] AG2^F | 
[V:2] dcd2 | 
[V:3] FGA2 | 
[V:4] D,_E,D,2 | 
[V:1] G4 |]  
[V:2] d4 |]  
[V:3] G4 |]  
[V:4] G,,4 |]  


